!!!COM: Bach, Johann Sebastian (disputed)
!!!OTL: Fuga
!!!OMV: 2
!!!SCT: BWV 559
!!!SCA: Thematisches-systematisches Verzeichnis der musikalischen Werke von Johann Sebastian Bach (Schmieder 1990)
**kern	**kern	**kern	**kern
*MM60	*MM60	*MM60	*MM60
*k[]	*k[]	*k[]	*k[]
*M6/8	*M6/8	*M6/8	*M6/8
*tb32	*tb32	*tb32	*tb32
8r	8r	8r	8a
=1	=1	=1	=1
2.r	2.r	2.r	8b
.	.	.	8cc
.	.	.	8dd
.	.	.	8ee
.	.	.	8dd
.	.	.	8ee
=2	=2	=2	=2
2.r	2.r	2.r	8cc
.	.	.	8b
.	.	.	8a
.	.	.	[4.ff
=3	=3	=3	=3
2.r	2.r	2.r	8ff]
.	.	.	8ee
.	.	.	8dd
.	.	.	[4.ee
=4	=4	=4	=4
2.r	2.r	2.r	8ee]
.	.	.	8dd
.	.	.	8cc
.	.	.	4dd
.	.	.	8cc
=5	=5	=5	=5
2.r	2.r	2.r	4.b
.	.	.	4a
.	.	.	8b
=6	=6	=6	=6
2.r	2.r	4r	8g
.	.	.	8b
.	.	8e	[8ee
.	.	8f#	4.ee]
.	.	8g	.
.	.	8a	.
=7	=7	=7	=7
2.r	2.r	8b	4.dd#
.	.	8a	.
.	.	8b	.
.	.	8g	[4.ee
.	.	8f#	.
.	.	8e	.
=8	=8	=8	=8
2.r	2.r	[4.cc	8ee]
.	.	.	8ff#
.	.	.	8gg#
.	.	8cc]	[4.aa
.	.	8b	.
.	.	8a	.
=9	=9	=9	=9
2.r	2.r	[4.b	8aa]
.	.	.	8gg
.	.	.	8ff#
.	.	8b]	[4.gg
.	.	8a	.
.	.	8g	.
=10	=10	=10	=10
2.r	2.r	4a	8gg]
.	.	.	8ff#
.	.	8g	[8ee
.	.	4.f#	8ee]
.	.	.	8ff#
.	.	.	8dd#
=11	=11	=11	=11
2.r	2.r	4.g	8ee
.	.	.	8dd
.	.	.	8cc
.	.	4.g#	8b
.	.	.	8cc
.	.	.	8dd
=12	=12	=12	=12
2.r	4r	4.a	8cc
.	.	.	8dd
.	8r	.	8ee
.	4r	4r	8dd
.	.	.	8ee
.	8A	[8a	8cc
=13	=13	=13	=13
2.r	8B	4.a]	2.b
.	8c	.	.
.	8d	.	.
.	8e	4.g#	.
.	8d	.	.
.	8e	.	.
=14	=14	=14	=14
2.r	8c	4a	4cc
.	8B	.	.
.	8A	8cc	[8ee
.	[4.f	[4.a	8ee]
.	.	.	8dd
.	.	.	8cc
=15	=15	=15	=15
2.r	8f]	8a]	[4.dd
.	8e	8g	.
.	8d	8f	.
.	[4.e	[4.g	8dd]
.	.	.	8cc
.	.	.	8b
=16	=16	=16	=16
2.r	8e]	8g]	[4.cc
.	8d	8f	.
.	8c	8e	.
.	4d	4f	8cc]
.	.	.	8b
.	8c	8e	[8a
=17	=17	=17	=17
2.r	4.B	4.d#	8a]
.	.	.	8b
.	.	.	8a
.	4e	4e	8g
.	.	.	8a
.	8E	[8e	8g
=18	=18	=18	=18
2.r	8F#	4.e]	2.f#
.	8G	.	.
.	8A	.	.
.	8B	4.d#	.
.	8A	.	.
.	8B	.	.
=19	=19	=19	=19
2.r	8G	4e	4g
.	8F#	.	.
.	8E	[8b	8gg
.	[4.c	8b]	[4.ee
.	.	8a	.
.	.	8g	.
=20	=20	=20	=20
2.r	8c]	[4.a	8ee]
.	8B	.	8dd
.	8A	.	8cc
.	[4.B	8a]	[4.dd
.	.	8g#	.
.	.	8f#	.
=21	=21	=21	=21
2.r	8B]	[4.g#	8dd]
.	8A	.	8cc
.	8G#	.	8b
.	[4.A	8g#]	4.cc
.	.	8f#	.
.	.	8e	.
=22	=22	=22	=22
2.r	8A]	4.d# 4.f#	[4.b
.	8B	.	.
.	8A	.	.
.	8G	[4.e	8b]
.	8F#	.	8a
.	8E	.	8g
=23	=23	=23	=23
2.r	4.F#	8e]	[4.a
.	.	8f#	.
.	.	8e	.
.	4.B	4.d#	8a]
.	.	.	8g
.	.	.	8f#
=24	=24	=24	=24
2.r	8E	4.e	4.g
.	8F#	.	.
.	8G	.	.
.	8A	4r	4r
.	8G	.	.
.	8A	8c#	8e
=25	=25	=25	=25
2.r	8D	4.d	4.f
.	8E	.	.
.	8F	.	.
.	8G	4r	4r
.	8F	.	.
.	8G	8B	8d
=26	=26	=26	=26
2.r	8C	4.c	4.e
.	8D	.	.
.	8E	.	.
.	8F	4r	4r
.	8E	.	.
.	8F	8A	8c
=27	=27	=27	=27
2.r	8BB	4.B	4.d
.	8C	.	.
.	8D	.	.
.	8E	4r	4r
.	8D	.	.
.	8E	8G#	8B
=28	=28	=28	=28
2.r	4.A	8A	8c
.	.	8B	8d
.	.	8c	8e
.	4r	8B	8d
.	.	8c	8e
.	[8A	8c	8a
=29	=29	=29	=29
2.r	4.A]	2.B	8b
.	.	.	8cc
.	.	.	8dd
.	4.G#	.	8ee
.	.	.	8dd
.	.	.	8ee
=30	=30	=30	=30
2.r	4.A	4.A	8cc
.	.	.	8b
.	.	.	8a
.	4r	8r	4.ff
.	.	8a	.
.	8d	[8dd	.
=31	=31	=31	=31
2.r	8e	4.dd]	2.ee
.	8f	.	.
.	8g	.	.
.	8a	4.cc#	.
.	8g	.	.
.	8a	.	.
=32	=32	=32	=32
2.r	8f	4dd	4ff
.	8e	.	.
.	8d	8r	8r
.	[4.b-	4.r	8dd
.	.	.	8ee
.	.	.	8ff
=33	=33	=33	=33
2.r	8b-]	2.r	[4.gg
.	8a	.	.
.	8g	.	.
.	4.a	.	8gg]
.	.	.	8ff
.	.	.	8ee
=34	=34	=34	=34
4r	[4.dd	4r	8ff
.	.	.	8gg
8r	.	8r	8ff
4r	4dd]	4r	4.ee
8AA	8a	8cc	.
=35	=35	=35	=35
8BB	4.a	4.a	4.dd
8C	.	.	.
8D	.	.	.
8E	[4.e	4.g#	4.b
8D	.	.	.
8E	.	.	.
=36	=36	=36	=36
8C	4.e]	4.a	[4.cc
8BB	.	.	.
8AA	.	.	.
[4.F	4.f	[4.a	8cc]
.	.	.	8b
.	.	.	8cc
=37	=37	=37	=37
8F]	8a	4.a]	[4.dd
8E	8g	.	.
8D	8f	.	.
[4.E	[4.g	[4.g	8dd]
.	.	.	8cc
.	.	.	8b
=38	=38	=38	=38
8E]	8g]	4.g]	[4.cc
8D	8f	.	.
8C	8e	.	.
[4.D	[4.f	[4.f	8cc]
.	.	.	8b
.	.	.	8a
=39	=39	=39	=39
8D]	8f]	4.f]	[4.b
8C	8e	.	.
8BB	8d	.	.
[4.C	[4.e	[4.e	8b]
.	.	.	8a
.	.	.	8g#
=40	=40	=40	=40
8C]	8e]	4.e]	[4.a
8BB	8d	.	.
8AA	8c	.	.
[4.E	4.B	4.e	8a]
.	.	.	8b
.	.	.	8a
=41	=41	=41	=41
4.E]	4B	2.e	8g
.	.	.	8a
.	8E	.	8g
[4.BB	8F#	.	[4.f#
.	8G	.	.
.	8A	.	.
=42	=42	=42	=42
4.BB]	8B	4.d#	4.f#]
.	8A	.	.
.	8B	.	.
[4.E	8G#	4.B	4.e
.	8F#	.	.
.	8E	.	.
=43	=43	=43	=43
2.E_	4.A	4.c	4r
.	.	.	8a
.	4.A	[4.B	8b
.	.	.	8cc
.	.	.	8dd
=44	=44	=44	=44
2.E_	4.G#	4.B]	8ee
.	.	.	8dd
.	.	.	8ee
.	4A	4e	8cc
.	.	.	8b
.	8r	8r	8a
=45	=45	=45	=45
2.E_	8c	8a	[4.ff
.	8B	8g	.
.	8A	8f	.
.	[4.B	[4.g	8ff]
.	.	.	8ee
.	.	.	8dd
=46	=46	=46	=46
2.E_	8B]	8g]	[4.ee
.	8A	8f	.
.	8G	8e	.
.	[4.A	[4.f	8ee]
.	.	.	8dd
.	.	.	8cc
=47	=47	=47	=47
2.E_	8A]	8f]	[4.dd
.	8G#	8e	.
.	8F#	8d	.
.	4.G#	[4.e	8dd]
.	.	.	8cc
.	.	.	8b
=48	=48	=48	=48
2.E_	4A	4e]	4.cc
.	8A	[8a	.
.	8B	4.a]	[4.b
.	8c	.	.
.	8d	.	.
=49	=49	=49	=49
2.E_	8e	4.g#	4.b]
.	8d	.	.
.	8e	.	.
.	8c	[4.a	8ee
.	8B	.	8dd
.	8A	.	8cc
=50	=50	=50	=50
2.E]	[4.B	4.a]	2.b
.	4B]	4.g#T	.
.	[8d	.	.
=51	=51	=51	=51
[2.AA	4d]	[2.e	[2.a
.	8d	.	.
.	4c#	.	.
.	8B	.	.
=52	=52	=52	=52
2.AA]	2.A 2.c#	2.e]	2.a]
==	==	==	==
*-	*-	*-	*-
!!!ENC: Peter van Kranenburg (peter@musical-style-recognition.net)
!!!END: 2006-11-9
